assets/Petri dish/Flat/petri_dish_flat.svg

<svg width="32" height="32" viewBox="0 0 32 32" fill="none" xmlns="http://www.w3.org/2000/svg">
<path d="M16 28C25.7502 28 28 21.4036 28 14.5C28 7.59644 22.6274 2 16 2C9.37258 2 4 7.59644 4 14.5C4 21.4036 6.5 28 16 28Z" fill="#AEDDFF"/>
<path d="M5 14.5C5 8.28663 9.69216 3.2837 15.5015 3.01165C15.6671 3.00392 15.8333 3 16 3C16.1667 3 16.3329 3.00392 16.4985 3.01165C22.3078 3.2837 27 8.28663 27 14.5C27 14.7733 26.9909 15.0442 26.9731 15.3125C26.5647 10.1103 21.5678 8 16 8C10.4322 8 5.43535 10.1103 5.02692 15.3125C5.00908 15.0442 5 14.7733 5 14.5Z" fill="#83CBFF"/>
<path d="M16 27C22.4744 27 27.7512 21.6591 27.9915 14.9762L28 15V18C28 23.799 24 30 16 30C8 30 4 23.799 4 18C4 18 4.02177 14.9202 4 15L4.0083 14.9692C4.24515 21.6553 9.52338 27 16 27Z" fill="#83CBFF"/>
<path d="M26.9731 15.3125C26.5736 21.3178 21.7789 26 16 26C10.2211 26 5.42641 21.3178 5.02692 15.3125C5.43534 10.1103 10.4322 6 16 6C21.5678 6 26.5646 10.1103 26.9731 15.3125Z" fill="#00A6ED"/>
<path d="M11.5 13C12.3284 13 13 12.3284 13 11.5C13 10.6716 12.3284 10 11.5 10C10.6716 10 10 10.6716 10 11.5C10 12.3284 10.6716 13 11.5 13Z" fill="#E2FF92"/>
<path d="M19.5 17C20.8807 17 22 15.8807 22 14.5C22 13.1193 20.8807 12 19.5 12C18.1193 12 17 13.1193 17 14.5C17 15.8807 18.1193 17 19.5 17Z" fill="#E2FF92"/>
<path d="M16 19.5C16 20.8807 14.8807 22 13.5 22C12.1193 22 11 20.8807 11 19.5C11 18.1193 12.1193 17 13.5 17C14.8807 17 16 18.1193 16 19.5Z" fill="#E2FF92"/>
</svg>

<svg xmlns="http://www.w3.org/2000/svg" width="32" height="32" fill="none"><path fill="#AEDDFF" d="M16 28c9.75 0 12-6.596 12-13.5S22.627 2 16 2 4 7.596 4 14.5 6.5 28 16 28Z"/><path fill="#83CBFF" d="M5 14.5C5 8.287 9.692 3.284 15.502 3.012a10.69 10.69 0 0 1 .996 0C22.308 3.284 27 8.287 27 14.5c0 .273-.01.544-.027.813C26.565 10.11 21.568 8 16 8c-5.568 0-10.565 2.11-10.973 7.313-.018-.269-.027-.54-.027-.813Z"/><path fill="#83CBFF" d="M16 27c6.474 0 11.751-5.34 11.991-12.024L28 15v3c0 5.799-4 12-12 12S4 23.799 4 18c0 0 .022-3.08 0-3l.008-.03C4.245 21.654 9.523 27 16 27Z"/><path fill="#00A6ED" d="M26.973 15.313C26.573 21.317 21.78 26 16 26c-5.779 0-10.574-4.682-10.973-10.688C5.435 10.11 10.432 6 16 6c5.568 0 10.565 4.11 10.973 9.313Z"/><path fill="#E2FF92" d="M11.5 13a1.5 1.5 0 1 0 0-3 1.5 1.5 0 0 0 0 3ZM19.5 17a2.5 2.5 0 1 0 0-5 2.5 2.5 0 0 0 0 5ZM16 19.5a2.5 2.5 0 1 1-5 0 2.5 2.5 0 0 1 5 0Z"/></svg>
